assets/img/icons/duotone-icons/Communication/Shield-user.svg

<?xml version="1.0" encoding="UTF-8"?>
<svg width="24px" height="24px" viewBox="0 0 24 24" version="1.1" xmlns="http://www.w3.org/2000/svg" xmlns:xlink="http://www.w3.org/1999/xlink">
    <!-- Generator: Sketch 52.2 (67145) - http://www.bohemiancoding.com/sketch -->
    <title>Stockholm-icons / Communication / Shield-user</title>
    <desc>Created with Sketch.</desc>
    <g id="Stockholm-icons-/-Communication-/-Shield-user" stroke="none" stroke-width="1" fill="none" fill-rule="evenodd">
        <rect id="bound" x="0" y="0" width="24" height="24"></rect>
        <path d="M4,4 L11.6314229,2.5691082 C11.8750185,2.52343403 12.1249815,2.52343403 12.3685771,2.5691082 L20,4 L20,13.2830094 C20,16.2173861 18.4883464,18.9447835 16,20.5 L12.5299989,22.6687507 C12.2057287,22.8714196 11.7942713,22.8714196 11.4700011,22.6687507 L8,20.5 C5.51165358,18.9447835 4,16.2173861 4,13.2830094 L4,4 Z" id="Path-50" fill="#335EEA" opacity="0.3"></path>
        <path d="M12,11 C10.8954305,11 10,10.1045695 10,9 C10,7.8954305 10.8954305,7 12,7 C13.1045695,7 14,7.8954305 14,9 C14,10.1045695 13.1045695,11 12,11 Z" id="Mask" fill="#335EEA" opacity="0.3"></path>
        <path d="M7.00036205,16.4995035 C7.21569918,13.5165724 9.36772908,12 11.9907452,12 C14.6506758,12 16.8360465,13.4332455 16.9988413,16.5 C17.0053266,16.6221713 16.9988413,17 16.5815,17 C14.5228466,17 11.463736,17 7.4041679,17 C7.26484009,17 6.98863236,16.6619875 7.00036205,16.4995035 Z" id="Mask-Copy" fill="#335EEA" opacity="0.3"></path>
    </g>
</svg>

<svg width="24" height="24" viewBox="0 0 24 24" xmlns="http://www.w3.org/2000/svg"><g fill="none" fill-rule="evenodd"><path d="M0 0h24v24H0z"/><path d="M4 4l7.631-1.43a2 2 0 01.738 0L20 4v9.283a8.51 8.51 0 01-4 7.217l-3.47 2.169a1 1 0 01-1.06 0L8 20.5a8.51 8.51 0 01-4-7.217V4z" fill="#335EEA" opacity=".3"/><path d="M12 11a2 2 0 110-4 2 2 0 010 4zM7 16.5c.216-2.983 2.368-4.5 4.99-4.5 2.66 0 4.846 1.433 5.009 4.5.006.122 0 .5-.418.5H7.404c-.14 0-.415-.338-.404-.5z" fill="#335EEA" opacity=".3"/></g></svg>
